X:69
T:ROND PALUDIER
Z: Yves BELOTTEAU
M:4/4
L:1/8
Q:1/4=120
K:G
|BB3/2dB3/2 z/2 G3/2 z/2 |A3/2AB3/2 BB3/2d|B3/2 z/2 G3/2 z/2 A3/2AB3/2|B
B3/2dB3/2 z/2 G3/2 z/2 |
A3/2AB3/2 BB3/2d|B3/2 z/2 G3/2 z/2 A3/2AB3/2|BB3/2GD3/2AA/2B/2A|G3/2BB3/
2 GD3/2A|
A3/2 z/2 G3/2 z/2 BB3/2G|D3/2AA/2B/2AG3/2BB3/2|GD3/2AA3/2 z/2 G3/2|
